X:1     %Music
T:Come, Tune Your Cheerful Voice
B:W. A. Pickard-Cambridge, A Collection of Dorset Carols, 1926
F:http://www.folkinfo.org/songs
V:1     %
     %!STAVE 0 'Soprano' @
     %!INSTR 'Choir aahs' 0 5200 @
M:6/8     %Meter
L:1/8     %
K:Bb
F3 |B2 F D2 F |B3 c3 |d2 f e2 d |
w:Come, tune your cheer-ful voice, Loud an-thems let us 
(d3 c2) z |z6 |z2 z z2 F |B2 B (cB)c |
w:sing, *For un-to us_ is 
d2 B B2 z |z6 |z2 z z2 G |B2 B (cB)c |
w:born to-day For un-to us_ is 
d3 f3 |c3 z2 z |z6 |z2 z e3 |
w:born to-day A 
d2 c B2 A |B3 z3 |]
w:Sa-viour and a King 
V:2     %
     %!STAVE 0 'Alto' @
     %!INSTR 'Choir aahs 2' 0 5200 @
M:6/8     %Meter
L:1/8     %
K:Bb
F3 |B2 F D2 F |F3 F3 |F2 F G2 E |
w:Come, tune your cheer-ful voice, Loud an-thems let us 
(F3 F2) z |z6 |z2 z z2 B, |D2 D (ED)E |
w:sing, *For un-to us_ is 
F2 D D2 z |z6 |z2 z z2 F |F2 F F2 F |
w:born to-day For un-to us is 
F3 F3 |F3 z2 F |F2 D (CB,)C |E3 G3 |
w:born to-day A Sa-viour and_ a King A 
F2 E D2 C |D3 z3 |]
w:Sa-viour and a King 
V:3     %
     %!STAVE 0 'Tenor' @
     %!INSTR 'Choir aahs 3' 0 5200 @
M:6/8     %Meter
L:1/8     %
K:Bb
F,3 |B,2 F, D,2 F, |D3 A,3 |B,2 D C2 B, |
w:Come tune your cheer-ful voice, Loud an-thems let us 
(B,3 A,2) F, |B,2 B, (CB,)C |D2 B, B,2 z |z6 |
w:sing,_ For un-to us_ is born to-day 
z6 |z6 |z2 z z2 F, |D2 D C2 A, |
w:For un-to us is 
B,3 B,3 |A,3 z2 D |D2 B, (A,G,)A, |B,3 B,3 |
w:born to-day A Sa-viour and_ a King, A 
B,2 F, F,2 F, |F,3 z3 |]
w:Sa-viour and a King. 
V:4     %
     %!STAVE 0 'Bass' @
     %!INSTR 'Choir aahs 4' 0 5200 @
M:6/8     %Meter
L:1/8     %
K:Bb
F,3 |B,2 F, D,2 F, |B,3 F,3 |B,2 B, (E,F,)G, |
w:Come tune your cheer-ful voice, Loud an-thems let_ us 
(F,3 F,2) z |z6 |z6 |z6 |
w:sing *
z2 z z2 F, |B,2 F, D,2 B,, |(F,3 F,2) F, |B,2 B, A,2 F, |
w:A Sa-viour and a King_ For un-to us is 
B,3 D,3 |F,3 z2 z |z2 z F,3 |B,3 B,3 |
w:born to-day A Sa-viour 
(B,2 F, F,2) F, |B,,3 z3 |]
w:and__ a King